src/components/Games/ALTTP/assets/Ganon Tower Sign.svg

<svg xmlns="http://www.w3.org/2000/svg" viewBox="0 0 18 17"><g data-name="Layer 2"><g data-name="Layer 1"><g data-name="Ganon Tower Sign"><path d="M8 2H1V1h6V0h4v1h6v1h-7V1H8zm0 15h2v-1H8zM8 3h2V2H8zm9-1v2H1V2H0v3h1v8h1v-2h1V7H2V5h2v1h3V5h3v1h5V5h1v1h-1v1h1v6h1V5h1V2zm-4 10h-1v1H7v-1H4v1H2v1h5v2h1v-2h2v2h1v-2h5v-1h-3zm-9 0v-1H3v1zm5-5h1V6H9zM4 6H3v1h1zm4 1V6H7v1zm-1 3H6V9h2v2h1V7H8v1H7V7H4v4h3zm6 2h1V8h1V7h-2zm-5-1H7v1h1zm2-4v1h1v4h1V7z" fill="#282827"/><path d="M3 7h1v4H3zm4 5v-1H4v1zM4 6v1h3V6zm3 2h1V7H7zm1 1H6v1h1v1h1zm2-3v1h2v5h1V7h2V6z" fill="#f7f8f8"/><path d="M17 2v2H1V2h7v1h2V2zm-7-1H8v1h2zm0 13H8v2h2zm-6-2v1H2v-2h1v1zm6-6V5H7v1h1v1h1V6zM3 6h1V5H2v2h1zm8 6V8h-1V7H9v4H8v1H7v1h5v-1zm4-7v1h1V5zm0 3h-1v4h-1v1h3V7h-1z" fill="#b96128"/></g></g></g></svg>

<svg xmlns="http://www.w3.org/2000/svg" viewBox="0 0 18 18"><g id="Ganon_Tower_Sign"><path d="M8,2H1V1H7V0h4V1h6V2H10V1H8ZM8,17h2V16H8ZM8,3h2V2H8Zm9-1V4H1V2H0V5H1v8H2V11H3V7H2V5H4V6H7V5h3V6h5V5h1V6H15V7h1v6h1V5h1V2ZM13,12H12v1H7V12H4v1H2v1H7v2H8V14h2v2h1V14h5V13H13ZM4,12V11H3v1ZM9,7h1V6H9ZM4,6H3V7H4ZM8,7V6H7V7ZM7,10H6V9H8v2H9V7H8V8H7V7H4v4H7Zm6,2h1V8h1V7H13ZM8,11H7v1H8Zm2-4V8h1v4h1V7Z" fill="#282827"/><path d="M3,7H4v4H3Zm4,5V11H4v1ZM4,6V7H7V6ZM7,8H8V7H7ZM8,9H6v1H7v1H8Zm2-3V7h2v5h1V7h2V6Z" fill="#f7f8f8"/><path d="M17,2V4H1V2H8V3h2V2ZM10,1H8V2h2Zm0,13H8v2h2ZM4,12v1H2V11H3v1Zm6-6V5H7V6H8V7H9V6ZM3,6H4V5H2V7H3Zm8,6V8H10V7H9v4H8v1H7v1h5V12Zm4-7V6h1V5Zm0,3H14v4H13v1h3V7H15Z" fill="#b96128"/></g></svg>
